X: 12
T:Le Canal En Octobre
M:4/4
L:1/8
C:Frederic Paris
R:Schottische
Z:Steve Mansfield
K:G
DGA | B3c cBAG | B3c cBAG | EFGB A3G | FGEF D2GA | B3c cBAG | B3c cBAG |
EFGB A3G |1 G4-GDGA :|2 G6dd |: d3c cBAG | d3c cBAG | EFGB A3G |
FGEF D2Bc | d3c cBAG | d3c cBAG | EFGB A3G |1 G6dd :|2 G4-G ||

